!!!OTL: WIE IST DER ABEND SO TRAULICH
!!!ARE: Europa, Mitteleuropa, Deutschland
!!!SCT: F1018
!!!YEM: Copyright 1995, estate of Helmut Schaffrath.
**kern
*ICvox
*Ivox
*M6/8
*k[b-]
*F:
{8cc
=1
4a
8a
8.b-
16a
8b-
=2
4cc
8ff
4a}
{8cc
=3
8.f
16g
8a
8.a
16b-
8cc
=4
4.g
4cc}
{8cc
=5
4a
8a
8.b-
16a
8b-
=6
4cc
8ff
4a}
{8cc
=7
8.f
16g
8a
8.cc
16b-
16g
16a
=8
2f
8r}
==
!!!AGN: Erbauungs - Lied, religioes; Tageszeiten - Lied, Abend
!!!ONB: ESAC (Essen Associative Code) Database: FINK
!!!AMT: compound duple
!!!AIN: vox
!!!EED: Helmut Schaffrath
!!!EEV: 1.0
*-
